src/assets/images/ranks/solo_conqueror_1.svg

<svg height="240" viewBox="0 0 160 240" width="160" xmlns="http://www.w3.org/2000/svg"><g fill="none" fill-rule="evenodd"><circle cx="80" cy="128" fill="#7e1600" r="63"/><path d="m51 168h58v36l-29 19.440402-29-19.440402z" fill="#7e1600"/><g fill="#856100"><path d="m51 163h58v55.440402l-29-17.680228-29 17.680228z"/><path d="m30 54.2148438c12-7.4765626 28.8333333-11.2148438 50.5-11.2148438 21.666667 0 38.5 3.7382812 50.5 11.2148438l-10 43h-81z"/><path d="m33.6496945 76.4652514c10.9332098-7.6435009 26.3833116-11.4652514 46.3503055-11.4652514l-.0241345 136c-.6748194 0-15.0805128-12.391517-43.2170801-37.174552 1.2736041-8.428291.9476143-16.851039-.9779692-25.268246s-6.1858555-15.51195-12.7808162-21.28423c4.0729347-9.228824 6.7423004-16.268388 8.0080971-21.1186945 1.2657967-4.8503061 2.1463292-11.4133148 2.6415974-19.6890261zm92.7006115 0c-10.93321-7.6435009-26.3833121-11.4652514-46.350306-11.4652514l.0241345 136c.3293649 0 14.7350582-12.391517 43.2170805-37.174552-1.273604-8.428291-.947615-16.851039.977969-25.268246 1.925583-8.417207 6.185855-15.51195 12.780816-21.28423-4.072935-9.228824-6.7423-16.268388-8.008097-21.1186945-1.265797-4.8503061-2.146329-11.4133148-2.641597-19.6890261z"/></g><path d="m80 69-.0224409 124-38.287885-31.8569c1.1494186-8.918258.8289005-17.214643-.9615544-24.889155-1.7904548-7.674512-6.3664947-15.178289-13.7281197-22.511332 3.7871147-6.469157 6.2691565-11.914904 7.4461254-16.3372423 1.1769689-4.4223379 1.9957096-10.4062577 2.4562221-17.9517592 10.165967-6.9690743 24.5318512-10.4536115 43.0976525-10.4536115zm0 0c18.5658013 0 32.931685 3.4845372 43.097653 10.4536115.460512 7.5455015 1.279253 13.5294213 2.456222 17.9517592 1.176968 4.4223383 3.65901 9.8680853 7.446125 16.3372423-7.361625 7.333043-11.937665 14.83682-13.72812 22.511332s-2.110973 15.970897-.961554 24.889155l-38.2878851 31.8569z" fill="#000" opacity=".446382"/><path d="m15 0 15 21-15 21-15-21z" fill="#f0be2a" transform="translate(65 8)"/><path d="m81.1990586 61c.9340075.2763948 1.5114151.5629695 1.7322229.8597241s.2208078.7861868 0 1.4682968c.4851912.3257348.8277613.6062352 1.0277103.8415012.199949.2352659.4255558.6232995.6768204 1.1641006 1.7409301-.5276732 3.0707001-.7453256 3.9893099-.6529572.677343.0681084 2.8429289.4847645 4.2458542 2.0187728 1.4510372 1.5866155 2.1290237 4.3106682 2.1290237 5.5283956 0 1.5967192-.8613139 3.8740408-2.5839417 6.8319647l-4.6400911 9.1722544c.2605467.2010943.4432183.4125522.548015.6343736.1047967.2218213.2051767.609494.3011399 1.1630181l-2.774677 2.1818768c-.301503.521005-.5008143 1.4056277-.5979339 2.6538681-.0971195 1.2482403-.0971195 2.9252886 0 5.0311449l1.3485628 1.8901295c-.3031564.860478-.553366 1.45173-.7506289 1.773756-.1972628.322027-.4776468.596955-.841152.824785l.0707069 22.823995 20.096429-20.272311c-.081452-.834517-.024607-1.32839.170535-1.481619 2.247041-1.764415 2.247041-5.289536.980182-8.1552856-1.405623-3.1796483-3.748505-4.8912658-7.0286445-5.1348526-.3503982-1.6004376-.6320924-2.8666692-.8450826-3.7986948-.2129902-.9320257-.5402868-2.3306823-.9818897-4.1959698 1.7448532.6309954 3.0772208 1.0523648 3.9971038 1.2641081.919883.2117434 2.21266.3946435 3.878331.5487004 1.32294 4.1550455 3.149575 6.7254117 5.479907 7.7110984 2.220016 1.1141999 4.849618.8521671 7.888807-.7860983l1.757592-.8095612c1.92603-1.1417962 3.259435-2.1208831 4.000213-2.9372606.740779-.8163775 1.562274-2.2121053 2.464486-4.1871836l11.038073-6.9740704c-1.81713 2.7368527-3.146682 4.8318535-3.988656 6.2850024s-1.652607 3.0518576-2.431898 4.7961259c-2.170912 1.1374849-3.710085 2.1654194-4.617519 3.0838035-.907433.918384-1.766366 2.3174945-2.576798 4.1973313l-2.768686 2.8020973c.673238 2.4460296 2.79167 4.4682616 6.355297 6.0666956s6.598373 1.673105 9.104237.224014l3.947981-1.764415c-.472338 6.941475-2.809876 12.313659-7.012614 16.116554-4.202738 3.802894-9.733607 6.5677-16.592606 8.294416l.770483-4.108923c3.020049-2.519646 3.331575-5.927395.934578-10.223248-2.396996-4.295852-4.743427-5.957104-7.039293-4.983755-.514123.921591-.925349 1.508149-1.233677 1.759676-.308329.251526-.616124.251526-.923387 0l-24.798484 24.412625.003 1.132 25.636053 26.426586c3.87992 4.426432 6.628576 7.744883 8.245969 9.955352 1.617393 2.21047 3.620719 5.38649 6.009978 9.528062-1.610836-.847965-3.085921-1.641878-4.425255-2.381739l-.872777-.485232c-2.700109-1.511212-4.795202-2.781525-6.285278-3.810937-2.352751-1.625388-5.270739-4.082725-8.753963-7.37201l-19.513727-18.883082.1035112 32.945703c1.5219633.840638 2.3572011 1.386748 2.5057136 1.638329l.0177424.037276c.0802375.232187.0802375.689744 0 1.372672l-.8415163.558955c1.1777538 3.648281 1.640931 5.748185 1.3895313 6.299712-.2513996.551527-.8257023.911645-1.7229082 1.080353h-10.3530977c-1.2442417-.407584-1.921305-.875776-2.0311899-1.404576-.1098848-.528801.2031712-2.52063.939168-5.975489l-.6616015-.887857c-.1056009-.508798-.1056009-.856721 0-1.04377.1056008-.187049.4131736-.383924.9227181-.590624l2.1565241-1.334147-.0005951-39.389537-29.7869648 29.325158c-.0185881.785855-.1415245 1.260041-.3688092 1.422559s-.7675069.162518-1.6206667 0l-1.9142035 4.037965-6.8823558.840318 1.4239109-6.19647 4.4928142-1.968805c-.1975318-.879036-.1975318-1.423891 0-1.634565.1975317-.210674.708397-.210674 1.5325957 0l29.6056792-29.86816-27.7691065-26.872373c-.3355058-.589894-.6493602-.970352-.9415631-1.141373-.292203-.171021-.7718382-.254979-1.4389056-.251873l-.8183071 1.66069-8.9698695 7.660484c-.0971095 1.111335-.2625775 1.781428-.4964042 2.010277-.2338266.228848-.7530264.228848-1.5575992 0-1.0483692.202546-1.6278297.123215-1.7383817-.237994s.1459709-1.337019.7695687-2.927429l2.5264122-1.11173 6.0747271-6.802425c.78691-1.263691 1.3537588-2.280626 1.7005463-3.050807s.7601494-1.930197 1.2400859-3.480048l-13.7582663-14.8785634c-.9801711-.9782238-1.6586428-1.4673356-2.035415-1.4673356-.3767721 0-.536628-.4045123-.4795677-1.2135369-1.6297095-.84965-2.8940352-1.4943723-3.7929768-1.9341666-.8989416-.4397944-2.0761809-.9895729-3.5317178-1.6493356-.0510129-1.4127903-.0510129-2.4107863 0-2.9939879.051013-.5832017.1857869-1.1259988.4043219-1.6283913l.6324465-.8312637c.6835388-.4115386 1.3079008-.6846521 1.8730859-.8193407s1.606474-.2585144 3.1238669-.3714773c.8728819 1.9860202 1.5452198 3.4465209 2.0170136 4.3815022.4717938.9349812 1.068108 1.9886419 1.7889425 3.1609821.7715749-.1835935 1.1573624-.0581851 1.1573624.3762254s.4388084 1.0488822 1.3164252 1.8434149l14.9341689 13.3998904c2.7685043-.6515759 4.9909838-1.2867454 6.6674386-1.9055085 1.5397623-.9067157 3.9920568-3.3231143 7.3568834-7.2491957.606829-1.6375085 1.7206654-2.3966633 3.3415092-2.2774644 1.6208439.119199 1.6208439.8007062 0 2.0445217.6263726.4029587.9395589.7370062.9395589 1.0021424s-.3131863.6364047-.9395589 1.1138054l-8.6513088 8.5106921-1.8032518 1.011127c-.0816978.690355-.0816978 1.204102 0 1.541242.0816979.33714.2735608.615147.5755889.834022l23.800247 24.533601.0005951-23.935995c-.4323081-.446134-.7588647-.816779-.9796697-1.111934l-.0881561-.121873c-.2178175-.312671-.4652866-.767583-.7424073-1.364734l1.1962322-1.8901295c.1144535-2.3463699.1144535-4.137567 0-5.3735912-.1144536-1.2360242-.3516595-2.0064981-.7116179-2.3114218l-2.6896095-1.9404685c.0792583-.621036.1820112-1.0891782.3082584-1.4044264.1262473-.3152483.3354899-.6261804.6277277-.9327962l-4.6578605-8.8738318c-1.9370264-3.3496451-2.8819636-5.8817264-2.8348116-7.596244.0389779-1.4172966 1.1201965-3.8815474 2.8348116-5.3108034 1.396665-1.1642215 3.4084715-1.4524915 4.0301328-1.4720857.9232292-.0290993 2.296546.1885531 4.1199505.6529572.0574466-.7027227.1795111-1.1789839.3661936-1.4287838.1866824-.2497998.5642322-.4420725 1.1326493-.576818-.2009785-.7058305-.2009785-1.1952628 0-1.4682968.2009785-.2730341.7721918-.5596088 1.71364-.8597241z" fill="#f0be2a"/></g></svg>

<?xml version="1.0" encoding="UTF-8"?>
<svg width="160px" height="240px" viewBox="0 0 160 240" version="1.1" xmlns="http://www.w3.org/2000/svg" xmlns:xlink="http://www.w3.org/1999/xlink">
    <title>solo_conqueror_1</title>
    <g id="solo_conqueror_1" stroke="none" stroke-width="1" fill="none" fill-rule="evenodd">
        <circle id="Oval-Copy-11" fill="#7E1600" cx="80" cy="128" r="63"></circle>
        <polygon id="Rectangle-Copy-65" fill="#7E1600" points="51 168 109 168 109 204 80 223.440402 51 204"></polygon>
        <polygon id="Rectangle-Copy-66" fill="#856100" points="51 163 109 163 109 218.440402 80 200.760174 51 218.440402"></polygon>
        <path d="M30,54.2148438 C42,46.7382812 58.8333333,43 80.5,43 C102.166667,43 119,46.7382812 131,54.2148438 L121,97.2148438 L40,97.2148438 L30,54.2148438 Z" id="Rectangle-Copy-67" fill="#856100"></path>
        <path d="M33.6496945,76.4652514 C44.5829043,68.8217505 60.0330061,65 80,65 L79.9758655,201 C79.3010461,201 64.8953527,188.608483 36.7587854,163.825448 C38.0323895,155.397157 37.7063997,146.974409 35.7808162,138.557202 C33.8552327,130.139995 29.5949607,123.045252 23,117.272972 C27.0729347,108.044148 29.7423004,101.004584 31.0080971,96.1542775 C32.2738938,91.3039714 33.1544263,84.7409627 33.6496945,76.4652514 Z M126.350306,76.4652514 C115.417096,68.8217505 99.9669939,65 80,65 L80.0241345,201 C80.3534994,201 94.7591927,188.608483 123.241215,163.825448 C121.967611,155.397157 122.2936,146.974409 124.219184,138.557202 C126.144767,130.139995 130.405039,123.045252 137,117.272972 C132.927065,108.044148 130.2577,101.004584 128.991903,96.1542775 C127.726106,91.3039714 126.845574,84.7409627 126.350306,76.4652514 Z" id="Combined-Shape-Copy-22" fill="#856100"></path>
        <path d="M80,69 L79.9775591,193 L41.6896741,161.1431 C42.8390927,152.224842 42.5185746,143.928457 40.7281197,136.253945 C38.9376649,128.579433 34.361625,121.075656 27,113.742613 C30.7871147,107.273456 33.2691565,101.827709 34.4461254,97.4053707 C35.6230943,92.9830328 36.441835,86.999113 36.9023475,79.4536115 C47.0683145,72.4845372 61.4341987,69 80,69 Z M80,69 C98.5658013,69 112.931685,72.4845372 123.097653,79.4536115 C123.558165,86.999113 124.376906,92.9830328 125.553875,97.4053707 C126.730843,101.827709 129.212885,107.273456 133,113.742613 C125.638375,121.075656 121.062335,128.579433 119.27188,136.253945 C117.481425,143.928457 117.160907,152.224842 118.310326,161.1431 L80.0224409,193 Z" id="Combined-Shape-Copy-25" fill="#000000" opacity="0.446382068"></path>
        <g id="Group-3-Copy-11" transform="translate(65.000000, 8.000000)" fill="#F0BE2A">
            <polygon id="Polygon-Copy-47" points="15 0 30 21 15 42 0 21"></polygon>
        </g>
        <path d="M81.1990586,61 C82.1330661,61.2763948 82.7104737,61.5629695 82.9312815,61.8597241 C83.1520893,62.1564787 83.1520893,62.6459109 82.9312815,63.3280209 C83.4164727,63.6537557 83.7590428,63.9342561 83.9589918,64.1695221 C84.1589408,64.404788 84.3845476,64.7928216 84.6358122,65.3336227 C86.3767423,64.8059495 87.7065123,64.5882971 88.6251221,64.6806655 C89.3024651,64.7487739 91.468051,65.16543 92.8709763,66.6994383 C94.3220135,68.2860538 95,71.0101065 95,72.2278339 C95,73.8245531 94.1386861,76.1018747 92.4160583,79.0597986 L87.7759672,88.232053 C88.0365139,88.4331473 88.2191855,88.6446052 88.3239822,88.8664266 C88.4287789,89.0882479 88.5291589,89.4759206 88.6251221,90.0294447 L85.8504451,92.2113215 C85.5489421,92.7323265 85.3496308,93.6169492 85.2525112,94.8651896 C85.1553917,96.1134299 85.1553917,97.7904782 85.2525112,99.8963345 L86.601074,101.786464 C86.2979176,102.646942 86.047708,103.238194 85.8504451,103.56022 C85.6531823,103.882247 85.3727983,104.157175 85.0092931,104.385005 L85.08,127.209 L105.176429,106.936689 C105.094977,106.102172 105.151822,105.608299 105.346964,105.45507 C107.594005,103.690655 107.594005,100.165534 106.327146,97.2997844 C104.921523,94.1201361 102.578641,92.4085186 99.2985015,92.1649318 C98.9481033,90.5644942 98.6664091,89.2982626 98.4534189,88.366237 C98.2404287,87.4342113 97.9131321,86.0355547 97.4715292,84.1702672 C99.2163824,84.8012626 100.54875,85.222632 101.468633,85.4343753 C102.388516,85.6461187 103.681293,85.8290188 105.346964,85.9830757 C106.669904,90.1381212 108.496539,92.7084874 110.826871,93.6941741 C113.046887,94.808374 115.676489,94.5463412 118.715678,92.9080758 L120.47327,92.0985146 C122.3993,90.9567184 123.732705,89.9776315 124.473483,89.161254 C125.214262,88.3448765 126.035757,86.9491487 126.937969,84.9740704 L137.976042,78 C136.158912,80.7368527 134.82936,82.8318535 133.987386,84.2850024 C133.145412,85.7381513 132.334779,87.33686 131.555488,89.0811283 C129.384576,90.2186132 127.845403,91.2465477 126.937969,92.1649318 C126.030536,93.0833158 125.171603,94.4824263 124.361171,96.3622631 L121.592485,99.1643604 C122.265723,101.61039 124.384155,103.632622 127.947782,105.231056 C131.511409,106.82949 134.546155,106.904161 137.052019,105.45507 L141,103.690655 C140.527662,110.63213 138.190124,116.004314 133.987386,119.807209 C129.784648,123.610103 124.253779,126.374909 117.39478,128.101625 L118.165263,123.992702 C121.185312,121.473056 121.496838,118.065307 119.099841,113.769454 C116.702845,109.473602 114.356414,107.81235 112.060548,108.785699 C111.546425,109.70729 111.135199,110.293848 110.826871,110.545375 C110.518542,110.796901 110.210747,110.796901 109.903484,110.545375 L85.105,134.958 L85.108,136.09 L110.744053,162.516586 C114.623973,166.943018 117.372629,170.261469 118.990022,172.471938 C120.607415,174.682408 122.610741,177.858428 125,182 C123.389164,181.152035 121.914079,180.358122 120.574745,179.618261 L119.701968,179.133029 C117.001859,177.621817 114.906766,176.351504 113.41669,175.322092 C111.063939,173.696704 108.145951,171.239367 104.662727,167.950082 L85.149,149.067 L85.2525112,182.012703 C86.7744745,182.853341 87.6097123,183.399451 87.7582248,183.651032 L87.7759672,183.688308 C87.8562047,183.920495 87.8562047,184.378052 87.7759672,185.06098 L86.9344509,185.619935 C88.1122047,189.268216 88.5753819,191.36812 88.3239822,191.919647 C88.0725826,192.471174 87.4982799,192.831292 86.601074,193 L76.2479763,193 C75.0037346,192.592416 74.3266713,192.124224 74.2167864,191.595424 C74.1069016,191.066623 74.4199576,189.074794 75.1559544,185.619935 L74.4943529,184.732078 C74.388752,184.22328 74.388752,183.875357 74.4943529,183.688308 C74.5999537,183.501259 74.9075265,183.304384 75.417071,183.097684 L77.5735951,181.763537 L77.573,142.374 L47.7860352,171.699158 C47.7674471,172.485013 47.6445107,172.959199 47.417226,173.121717 C47.1899413,173.284235 46.6497191,173.284235 45.7965593,173.121717 L43.8823558,177.159682 L37,178 L38.4239109,171.80353 L42.9167251,169.834725 C42.7191933,168.955689 42.7191933,168.410834 42.9167251,168.20016 C43.1142568,167.989486 43.6251221,167.989486 44.4493208,168.20016 L74.055,138.332 L46.2858935,111.459627 C45.9503877,110.869733 45.6365333,110.489275 45.3443304,110.318254 C45.0521274,110.147233 44.5724922,110.063275 43.9054248,110.066381 L43.0871177,111.727071 L34.1172482,119.387555 C34.0201387,120.49889 33.8546707,121.168983 33.620844,121.397832 C33.3870174,121.62668 32.8678176,121.62668 32.0632448,121.397832 C31.0148756,121.600378 30.4354151,121.521047 30.3248631,121.159838 C30.2143111,120.798629 30.470834,119.822819 31.0944318,118.232409 L33.620844,117.120679 L39.6955711,110.318254 C40.4824811,109.054563 41.0493299,108.037628 41.3961174,107.267447 C41.7429049,106.497266 42.1562668,105.33725 42.6362033,103.787399 L28.877937,88.9088356 C27.8977659,87.9306118 27.2192942,87.4415 26.842522,87.4415 C26.4657499,87.4415 26.305894,87.0369877 26.3629543,86.2279631 C24.7332448,85.3783131 23.4689191,84.7335908 22.5699775,84.2937965 C21.6710359,83.8540021 20.4937966,83.3042236 19.0382597,82.6444609 C18.9872468,81.2316706 18.9872468,80.2336746 19.0382597,79.650473 C19.0892727,79.0672713 19.2240466,78.5244742 19.4425816,78.0220817 L20.0750281,77.190818 C20.7585669,76.7792794 21.3829289,76.5061659 21.948114,76.3714773 C22.5132991,76.2367887 23.554588,76.1129629 25.0719809,76 C25.9448628,77.9860202 26.6172007,79.4465209 27.0889945,80.3815022 C27.5607883,81.3164834 28.1571025,82.3701441 28.877937,83.5424843 C29.6495119,83.3588908 30.0352994,83.4842992 30.0352994,83.9187097 C30.0352994,84.3531202 30.4741078,84.9675919 31.3517246,85.7621246 L46.2858935,99.162015 C49.0543978,98.5104391 51.2768773,97.8752696 52.9533321,97.2565065 C54.4930944,96.3497908 56.9453889,93.9333922 60.3102155,90.0073108 C60.9170445,88.3698023 62.0308809,87.6106475 63.6517247,87.7298464 C65.2725686,87.8490454 65.2725686,88.5305526 63.6517247,89.7743681 C64.2780973,90.1773268 64.5912836,90.5113743 64.5912836,90.7765105 C64.5912836,91.0416467 64.2780973,91.4129152 63.6517247,91.8903159 L55.0004159,100.401008 L53.1971641,101.412135 C53.1154663,102.10249 53.1154663,102.616237 53.1971641,102.953377 C53.278862,103.290517 53.4707249,103.568524 53.772753,103.787399 L77.573,128.321 L77.5735951,104.385005 C77.141287,103.938871 76.8147304,103.568226 76.5939254,103.273071 L76.5057693,103.151198 C76.2879518,102.838527 76.0404827,102.383615 75.763362,101.786464 L76.9595942,99.8963345 C77.0740477,97.5499646 77.0740477,95.7587675 76.9595942,94.5227433 C76.8451406,93.2867191 76.6079347,92.5162452 76.2479763,92.2113215 L73.5583668,90.270853 C73.6376251,89.649817 73.740378,89.1816748 73.8666252,88.8664266 C73.9928725,88.5511783 74.2021151,88.2402462 74.4943529,87.9336304 L69.8364924,79.0597986 C67.899466,75.7101535 66.9545288,73.1780722 67.0016808,71.4635546 C67.0406587,70.046258 68.1218773,67.5820072 69.8364924,66.1527512 C71.2331574,64.9885297 73.2449639,64.7002597 73.8666252,64.6806655 C74.7898544,64.6515662 76.1631712,64.8692186 77.9865757,65.3336227 C78.0440223,64.6309 78.1660868,64.1546388 78.3527693,63.9048389 C78.5394517,63.6550391 78.9170015,63.4627664 79.4854186,63.3280209 C79.2844401,62.6221904 79.2844401,62.1327581 79.4854186,61.8597241 C79.6863971,61.58669 80.2576104,61.3001153 81.1990586,61 Z" id="Combined-Shape" fill="#F0BE2A"></path>
    </g>
</svg>
